assets/icons/24px/stroke/strikethrough-24px.svg

<svg width="24" height="24" viewBox="0 0 24 24" fill="none" xmlns="http://www.w3.org/2000/svg">
<path fill-rule="evenodd" clip-rule="evenodd" d="M8.2738 4.82079C7.45084 5.31711 7 6.01119 7 7C7 7.76891 7.16449 8.31409 7.45212 8.74345C7.67854 9.08146 8.01593 9.39983 8.51815 9.70408C9.321 10.1905 10.4833 10.6047 12.1183 11H21C21.5523 11 22 11.4477 22 12C22 12.5523 21.5523 13 21 13H17.1252C17.1298 13.0036 17.1344 13.0071 17.139 13.0107C18.4185 14.0061 19 15.3222 19 17C19 18.7726 18.1077 20.0785 16.7591 20.8919C15.4606 21.6749 13.7586 22 12 22C9.80963 22 7.65064 21.4931 6.30002 20.1693C5.9056 19.7827 5.89925 19.1496 6.28584 18.7552C6.67242 18.3608 7.30556 18.3544 7.69998 18.741C8.4992 19.5243 10.0164 20 12 20C13.5552 20 14.8531 19.7058 15.7262 19.1792C16.5492 18.6829 17 17.9888 17 17C17 15.8696 16.6508 15.1649 15.9109 14.5893C15.1293 13.9811 13.8584 13.478 11.8817 13H3C2.44772 13 2 12.5523 2 12C2 11.4477 2.44772 11 3 11H6.87485C6.44805 10.67 6.08289 10.293 5.79049 9.85655C5.23493 9.02721 5 8.0707 5 7C5 5.22739 5.89231 3.92147 7.24092 3.10814C8.53938 2.32506 10.2415 2 12 2C14.3478 2 16.688 2.58467 18.0033 4.1588C18.3575 4.58261 18.301 5.21325 17.8772 5.56738C17.4534 5.9215 16.8227 5.86501 16.4686 5.4412C15.729 4.5561 14.1497 4 12 4C10.4448 4 9.14691 4.29423 8.2738 4.82079Z" fill="white"/>
</svg>

<svg width="24" height="24" fill="none" xmlns="http://www.w3.org/2000/svg"><path fill-rule="evenodd" clip-rule="evenodd" d="M8.274 4.82C7.45 5.318 7 6.012 7 7c0 .769.164 1.314.452 1.743.227.338.564.657 1.066.961.803.486 1.965.9 3.6 1.296H21a1 1 0 1 1 0 2h-3.875l.014.01C18.419 14.007 19 15.323 19 17c0 1.773-.892 3.078-2.24 3.892C15.46 21.675 13.758 22 12 22c-2.19 0-4.35-.507-5.7-1.83a1 1 0 1 1 1.4-1.429C8.5 19.524 10.016 20 12 20c1.555 0 2.853-.294 3.726-.82C16.55 18.682 17 17.988 17 17c0-1.13-.35-1.835-1.09-2.41-.78-.609-2.052-1.112-4.028-1.59H3a1 1 0 1 1 0-2h3.875A4.879 4.879 0 0 1 5.79 9.857C5.235 9.027 5 8.07 5 7c0-1.773.892-3.079 2.24-3.892C8.54 2.325 10.243 2 12 2c2.348 0 4.688.585 6.003 2.159A1 1 0 1 1 16.47 5.44C15.729 4.556 14.149 4 12 4c-1.555 0-2.853.294-3.726.82z" fill="#fff"/></svg>
